icon-themes/breeze_svg/cmd/sc_crookslant.svg

<svg viewBox="0 0 16 16" xmlns="http://www.w3.org/2000/svg">/&gt;<path d="m2 2v9.0625.4375.59375c4.8678397.220306 7.1130185.875405 12 1.90625v-9.90625-1.125-.03125c-3.30471-.74307-6.14949-.9375-12-.9375zm1 1.03125c4.0589921-.0297554 7.150146.3008143 10 .875v8.75c-3.333405-.792678-5.2543394-1.386107-10-1.5625zm3 1.96875-2 2 2 2v-1c1.54012.00831 2.709585.377685 4 1v1l2-2-2-2v1c-1.27132-.5733162-1.9686987-.9913502-4-1z" fill="#4d4d4d"/></svg>

<svg xmlns="http://www.w3.org/2000/svg" viewBox="0 0 16 16">
     />
 <path 
     style="fill:#4d4d4d" 
     d="M 2 2 L 2 11.0625 L 2 11.5 L 2 12.09375 C 6.8678397 12.314056 9.1130185 12.969155 14 14 L 14 4.09375 L 14 2.96875 L 14 2.9375 C 10.69529 2.19443 7.85051 2 2 2 z M 3 3.03125 C 7.0589921 3.0014946 10.150146 3.3320643 13 3.90625 L 13 12.65625 C 9.666595 11.863572 7.7456606 11.270143 3 11.09375 L 3 3.03125 z M 6 5 L 4 7 L 6 9 L 6 8 C 7.54012 8.00831 8.709585 8.377685 10 9 L 10 10 L 12 8 L 10 6 L 10 7 C 8.72868 6.4266838 8.0313013 6.0086498 6 6 L 6 5 z "
     />
 </svg>
